X:1
T:Étude Op. 25 No. 7 in C♯ minor
T:Étude Op. 25 No. 7 in C♯ minor
T:"Cello"
T:Frédéric Chopin
C:Frédéric Chopin
%%score { ( 1 3 ) | 2 }
L:1/8
Q:1/4=66
M:11/4
K:E
V:1 treble nm="鋼琴" snm="Pno."
V:3 treble 
V:2 bass 
V:1
"^Lento" x2 x2 x2 x2 x2 x2 z8 x2 ||[M:3/4] z!pp! ([Gc][Gc][Gc][Gc][Gc] | e4 d>c | c2 ^B2 c2 | %4
 d2 G3) (G | G2 c2 =B2 | B2 A2 G2) | (G2 F2 FE) | (ED [G,G][G,G][D^FG][DFG]) | %9
 z ([Gc][Gc][Gc][Gc][Gc] | e4 d>c |!pp! c4 B2 | B4 B>B | B2 A4-) | A6- | A6 | =c4- c>(c | %17
 =c2 B2) z2 | z!pp! ([EG][EG][EG][EG][EG] | B4 B2 | [B,EGB])(.[B,EG].[EGB].[GBe].[Beg].[GBe]) | %21
 (c2 d- (6:1:6dded^^cd ^f>e | d g2) x x2 | (d2 ^e2 f2 | f^e ^a2) x2 |!<(! (^e2 f2 ^^f2 | %26
 g2!<)!!f!"_dim." [fa]4) |"^riten."[Q:1/4=62]!ff! (_b2[Q:1/4=58] [=e=g]2[Q:1/4=54] x2 | %28
 !>!_e4)!pp![Q:1/4=66] (^dd | d4 d>e | f4) (f7/4g/4 | g4 f7/4d/4 | d3 cB>c | [Bd]4) (d7/4e/4 | %34
 f4 f7/4g/4 | a2) x4 | %36
[Q:1/4=60] !fermata![FBd]4[Q:1/4=66]!pp! z ([FBd][Q:1/4=54][Q:1/4=48][Q:1/4=42][Q:1/4=5] | %37
 e4) (e7/4=d/4) | (=d>=c B2) (d>c | B2 BA/) z/ z2 | z6 | z!pp! ([EG][EG][EG][EG][EG]) | %42
 z ([EG][EG][EG][EG][EG] | B4 B2 | B4[Q:1/4=62][Q:1/4=58] ^B7/4[Q:1/4=54]!mp!c/4 | %45
[Q:1/4=62] z [Gc][Gc][Gc][Gc][Gc] | e4 d>c) | (c2 ^B2 c2 | d2 G7/2 G/) | (G2 c2 =B2 | B2 A2 G2) | %51
 (G2 F2 FE | ED) ([G,G][G,G][G,DFG][DFG]) | z ([Gc][Gc][Gc][Gc][Gc] | e4 d>c | c2 B2 B2 | B4 c>B | %57
 B2 A4-) | A4 (A>A | A2 G4) |!pp! (e4 e2- | e2 c4 | G4"^riten."[Q:1/4=58] G2 |!f! G2[Q:1/4=54] F4 | %64
[Q:1/4=50] E2 ED[Q:1/4=46] D7/4C/4) | %65
[Q:1/4=42]"_smorz."[I:staff +1] [E,C][I:staff -1]([CE][CE])[CE][I:staff +1] [F,CD][F,^B,D] | %66
[I:staff -1] C[CE][CD][Q:1/4=20] !fermata!z2!pp![Q:1/4=42][I:staff +1] ([F,^B,D] | %67
 [E,C]2)[I:staff -1] z2[I:staff +1] (.[E,C]2 | [E,C]6) |] %69
V:2
!p!!<(! (G,,2!<)!!mp! D,3!>(! C, C,2!>)!!p! ^B,,2!mp!!>(! A,3 G, ^^F,/G,/A,/G,/ =B,/A,/E,/^E,/ ^F,/E,/G,/F,/ A,/G,/C,/!p!D,/)!>)! || %1
[M:3/4]!mf!!>(!{/=E,} (E4 D>!mp!C!>)! | C7/2 D/4C/4 B,>A, | A,2- A,/G,/^^F,/G,/ =B,/A,/^F,/D,/ | %4
 ^B,,2) z (!>!^^F,,/G,,/!<(!{/=B,,} A,,/G,,/C,/D,/!<)! |!mf! E,2) (C,,2 G,>G, | %6
 G,2) (3(F,,C,F, (3G,B,A, |!>(! A,2 ^B,,2 TC,B,,/4C,/4D,/4E,/4!>)! | %8
!mp! G,,2)!<(! (!>!^^F,,/G,,/^B,,/D,/ ^^F,/G,/{/=B,}A,/>!<)!!mf!G,/) |!>(!{/C,} (E4!>)!!mp! D>C) | %10
 C3- C/4^B,/4D/4C/4 =B,>A, | (B,,,F,,/B,,/ D,/F,/A,/B,/ D/C/ (3C/B,/A,/ | G,3 G,{/B,} A,>G, | %13
 G,2)!<(! (F,,>C, F,/G,/A,/B,/!<)! |!mf! =C/G,/A,/B,/ C/A,/^A,/B,/)"_dimin." C2- | %15
!pp! (C/B,/=D/=C/ B,/G,/B,/A,/ C/A,/E,/=C,/ | A,/G,/B,/A,/ F,/^E,/=G,/F,/ A,/F,/=C,/A,,/) | %17
!<(! (B,,/E,/G,/E,/ B,3!<)!!mf! G, | E/B,/C/>G,/"_ten." B,2 C/G,/B,/>E,/ | %19
"_ten." G,2- G,/^A,,/C,/B,,/ F,>E, |!ped! E,2) z2 z2!ped-up! |!>(! (E2 D2!>)!!mp! ^A,2 | %22
 C2{B,DC} B,)!<(! (^^F,,/4G,,/4^A,,/4B,,/4 ^^C,/4D,/4^^F,/4G,/4 (3^A,/4B,/4^^C/4 (3D/4E/4^E/4)!<)! | %23
[K:treble]!mf! (^F2 ^E/>F/ (3E/^^D/E/!>(! ^B>^D!>)! | %24
!mp! !>!D2{^^C^ED} ^C)[K:bass]!<(! (!>!^^G,,/4^A,,/4C,/4^^C,/4 ^^D,/4^E,/4^^G,/4^A,/4[K:treble] (3^C/4^^C/4^^D/4 (3^E/4^^G/4^A/4)!<)! | %25
!f! B7/4B,/4 B,2[K:bass]"_"({/^A,B,)} TB,2 | %26
 (7:4:7(^A,/4B,/4C/4B,/4=A,/4G,/4^^F,/4(7:4:7G,/4A,/4G,/4^F,/4E,/4D,/4C,/4) (!>!=C,/4B,,/4^A,,/4B,,/4 !>!_B,,/4=A,,/4G,,/4A,,/4 (6:4:6!>!_A,,/4=G,,/4F,,/4G,,/4F,,/4=F,,/4 (6:4:6E,,/4_E,,/4=D,,/4_D,,/4=C,,/4=B,,,/4) | %27
 (17:2:17(_B,,,63/64A,,,63/64B,,,63/64=C,,63/64=D,,63/64_E,,63/64=F,,63/64=G,,63/64_A,,63/64_B,,63/64=C,63/64=D,63/64_E,63/64=F,63/64=G,63/64_A,63/64_B,63/64(20:2:20=C=D_E=F=GFEDCB,=A,CB,_A,G,F,E,D,C,B,,(21:2:21=A,,_C,B,,=C,=B,,D,C,_B,,A,,C,B,,_A,,G,,F,,E,,D,,C,,B,,,_A,,,=G,,,=F,,,) | %28
!ped! _E,,,2 z2!pp! (!>!^D>^C!ped-up! |!ped! B,/F,/B,,/C,/ D,/F,,/B,,,/) z/!ped-up! ((!>!D>C | %30
!ped! B,/F,/B,,/C,/ D,/F,,/B,,,/)) z/!ped-up! (!>!D>C | %31
!ped! B,/F,/B,,/C,/ D,/F,,/B,,,/) z/!ped-up! (!>!D>C | %32
!ped! B,/=G,/E,/F,/ G,/B,,/B,,,/) z/!ped-up! (D>C | %33
!ped! B,/F,/B,,/C,/ D,/F,,/B,,,/) z/!ped-up! ((D>C | %34
!ped! B,/F,/B,,/C,/ D,/F,,/B,,,/)) z/!ped-up! (!>!D>C | %35
!ped! B,/F,/B,,/C,/ D,/F,,/B,,,/)"_smorz." z/!ped-up! (D>C | %36
!ped! B,/F,/B,,/C,/ D,/F,,/B,,,/)!ped-up!!pp! !fermata!z/!pp! ((B,>A, | A,2 =G,2 T^G,2({^^F,G,)} | %38
 A,2 E,2 A,2 | E,2 =F,2)) (=C,>_B,, |!pp! A,,/=C,/=F,/C,/ A,2) z2 | (B,,/E,/G,/E,/ B,3 G, | %42
 E/B,/C/>G,/"^ten." B,2 C/G,/B,/>E,/ |"^ten." G,2- G,/^A,,/C,/B,,/ F,>E, | %44
 E,2- E,/^^F,,/A,,/G,,/ D,>!mf!C,) |!ped!!>(!{/C,,C,} (E4 D>!ped-up!C!>)! | %46
!mp! C7/2 D/4C/4 B,>A,) | (A,2- A,/^G,/^^F,/G,/ =B,/A,/^F,/D,/) | %48
 ^B,,2 z (^^F,,/G,,/{/=B,,} A,,/G,,/C,/D,/ | E,2 C,,2) (G,>G, | G,2){/F,,,} (3(F,,C,F, (3G,B,A,) | %51
 (A,2 ^B,,2 TC,B,,/4C,/4D,/4E,/4 | %52
 G,,2)!f!!<(! (9:1:9(^^F,,,G,,,A,,,^A,,,B,,,^B,,,C,,^^C,,D,,(8:1:8E,,^E,,^F,,^^F,,G,,A,,^A,,B,,(9:1:9^B,,C,^^C,D,E,^E,F,^^F,G,(7:1:7A,63/64^A,63/64B,63/64^B,63/64C63/64^^C63/64D63/64)!<)! | %53
!f!!>(! (E4 D>C | C3- C/4^B,/4D/4C/4 =B,>A,!>)! |!mf! A,2 G,2"_"({/^E,F,)} TF,2 | %56
 ^E,2 !>!G2) !>!^E,,2 | (F,,/G,,/F,,/^E,,/!<(! F,,/G,,/A,,/G,,/ B,,/A,,/G,,/F,,/ | %58
 =E,/D,/^^C,/D,/!<)!!f! B,/A,/G,/F,/!>(! E,/D,/F,/A,/!>)! |!mf! G,,/C,/E,/C,/ G,3 E,) | %60
!pp! (C/G,/A,/E,/ G,2 C/G,/A,/E,/ | G,2 A,/E,/G,/>C,/) E,2- | %62
 (E,2- E,/^^F,,/A,,/G,,/!>(! D,>!>)!!pp!C,) |!f!"_ten." C,2- C,/^E,,/G,,/^F,,/"_dim." B,,2- | %64
 (B,,/D,,/F,,/E,,/ ^A,,/^^C,,/E,,/D,,/ =A,,>G,, | ^C,,2- C,,/D,,/F,,/E,,/ A,,>G,, | %66
 C,,/D,,/F,,/E,,/A,,) !fermata!z2 (G,, | C,,2) z2!ped! (.[C,,G,,]2 | [C,,G,,]6)!ped-up! |] %69
V:3
 x22 ||[M:3/4] x6 | [EA][EA][EA][EA][EA][EA] | [DF][DF][DF][DF][DF][DF] | %4
 [DF][DF][DF][DF][^B,F][B,F] | z C[CE][CE][CE][CE] | [CE][CE][CE][CE][CE][CE] | %7
 [CD][CD] [A,D][G,D] [G,C][G,C] | [G,^B,][G,B,] x4 | x6 | [EA][EA][EA][EA][EA][EA] | %11
 [DA][DA][DA][DA]A[DF] | [=DF][DF][D=F][DF][C^E][CE] | [C^F][CF][CF][CF][CF][CF] | %14
 [EF][EF][EF][EF][EF][EF] | [EF][EF][EF][EF][EF][EF] | [EF][EF][EA][EA][EF][EF] | %17
 [EG][EG][EG][EG][EG][EG] | x6 | [B,E][B,E][B,E][B,E][B,DA][B,DA] | x6 | %21
 [^^F^A][FA][FA][FA][^^F^c][Fc] | [^^F^A][Gd][Gd][GBd][GBd][GBd] | [^^G^B][GB][Gd][Gd][Gd][Gd] | %24
 [^G=B][GB] [G^A^e][GAe][GAe][GAe] | [G^^c][Gc][Ad][Ad][Ad][Ad] | [G=e][Ge] [Ad][Ad][Ad][Ad] | %27
 [_B_e=g][Be] [=GB][GB] [_AB=f][=DAB] | [_E=G]!p!EEE x2 | z [DF][DF][DF] z [FB] | %30
 z [FBd][FBd][FBd]-[FBd][FBd]- | [FBd][FBd][FBd][F-B-d][FB][FB-] | B[E=GB][EGB][EG]-[EG][EGB-] | %33
 z [DF][DF][DF] z [FB]- | [FB][FBd][FBd][FBd]-[FBd][FBd] | [FBd] [FBd]2 [FBd]2 [FBd] | x6 | %37
 [EB][EB][EB][EB][EB][EB] | [EA][EA][E^G][EG][EA][EA] | [E=G][EG] [=C=F]2 x2 | x6 | x6 | x6 | %43
 [B,E][B,E][B,E][B,E][B,DA][B,DA] | [B,EG]"_poco riten."!<(![B,EG][B,EG][B,EG][^B,FG][B,FG]!<)! | %45
 x6 | [EA][EA][EA][EA][EA][EA] | [DF][DF][DF][DF][DF][DF] | [DF][DF][DF][DF][^B,F][B,F] | %49
 z C[CE][CE][CE][CE] | [CE][CE][CE][CE][CE][CE] | [CD][CD][A,D][G,D][G,C][G,C] | %52
 [G,^B,][G,B,] x241/60 | x6 | [EA][EA][EA][EA] [EA][EA] | [=D^E][DE][DE][DE][DF][DF] | %56
 [=DG][DG]DD[CG][CG] | [CF][CF][CF][CF][CF][CF] | [CF][^CF][CF][CF][CF][CF] | %59
 [CE][CE][CE][CE][CE][CE] | [Ec][Ec][Ec][Ec][Ec][Ec] | [Ec][Ec][CE][CE][CG][CG] | %62
 [G,C][G,C][G,CE][G,CE][G,^B,F][G,B,F] | %63
[I:staff +1] [G,=B,^E][G,B,E] [F,^A,=E][F,A,E] [F,=A,D][F,A,D] | %64
 [=E,G,D][E,G,D] [E,G,C][D,^^F,C] [D,^F,C][D,F,^B,] | x !stemless!G, !stemless!G, !stemless!G, x2 | %66
 !stemless!E, !stemless!G, !stemless!F, x3 | x6 | x6 |] %69

